X: 34833
T: Roaring Barmaid, The
R: jig
M: 6/8
K: Gmajor
|:GFG EGD|GFG EGD|DEG BGG|dGG BGG|
GFG EGD|GFG EGD|GAB deg|deg edB:|
deg b3|bab deg|b2b bag|edB deg|
b2b bab|agg bgg|agg deg|deg edB:|

